!!!OTL: 413a. Die Nachtigall als Botin.
!!!ARE: Europa, Mitteleuropa, Deutschland, Bergisches Land, Homberg
!!!SCT: E0413
!!!TXL: @@DE
!!!YEM: Copyright 1995, estate of Helmut Schaffrath.
**kern	**text
*ICvox	*
*M3/4	*
*k[b-e-]	*
*B-:	*
!LO:TX:a:t=Sehr mäßig.	!
!LO:TX:a:t=Aus dem Bergiſchen (Homberg).	!
{8f	Nach-
16gL	-ti-
16aJ	.
=1	=1
4b-	-gall,
4dd	kleins
8cc	Vö-
16ccL	-ge-
16ddJ	.
=2	=2
4b-	-lein,
8r}	.
{8cc	willſt
8ee-	du
8dd	dieſe
=3	=3
4.cc	Nacht
8b-	mein
8a	Bo-
8b-/	-te
=4	=4
4cc	ſein?
4r}	.
{8cc	Jch
8dd	will
=5	=5
(8ff	wohl
4ee-)	.
8cc	dein
8dd	Bo-
8ff	-te
=6	=6
(4b-/	ſein,
8a)}	.
{8g	nur
8a	bin
8b-/	ich
=7	=7
4.cc	ſo'n
8ee-	klein
8dd	Vö-
8cc	-ge-
=8	=8
4b-	-lein.
4r}	.
{8cc	Jch
8dd	will
=9	=9
(8ff	wohl
4ee-)	.
8cc	dein
8dd	Bo-
8ff	-te
=10	=10
(4b-/	ſein,
8a)}	.
{8g	nur
8a	bin
8b-/	ich
=11	=11
4.cc	ſo'n
8ee-	klein
8dd	Vö-
8cc	-ge-
=12	=12
4b-	-lein.
4r}	.
==	==
!!!AGN: Liebes - Lied
!!!ONB: ESAC (Essen Associative Code) Database: ERK1
!!!AMT: simple triple
!!!AIN: vox
!!!EED: Helmut Schaffrath
!!!EEV: 1.0
!!!GTL: Liebeslieder [Alte (aus dem 13. bis 17. Jahrh.) mit ihrem jungen Nachwuchs]
!!!URL-scan: https://rosdok.uni-rostock.de/mcrviewer/recordIdentifier/rosdok_ppn745177662/iview2/phys_0232.iview2?x=-2131.6244019138758&y=-80.56650718778837&scale=0.23831242873432154&rotation=0&layout=singlePageLayout
!!!ENC: Anna Maria Matuszewska
!!!EEV: 2024/09/12
*-	*-
